!!!!SEGMENT: pl-wnifc--493-n--001-014_oginski-michal-kleofas--16-polonaises-14-a-quatre-mains.krn
!!!cenid: 18xx:3873
!!!COM: Ogiński, Michał Kleofas
!!!COM-rismID: pe30002379
!!!CDT: 1765/09/25-1833/10/15
!!!CNT:
!!!GTL: 16 Polonaises
!!!OTL: 14. A quatre mains
!!!OMV: 014
!!!PDT: 1864
!!!AGN: Secular; Polonaise
!!!YEC: Copyright 2022 Narodowy Instytut Fryderyka Chopina (https://polishscores.org)
!!!YEM: License CC-BY-4.0 (https://creativecommons.org/licenses/by/4.0)
!!!SMS-siglum: PL-Wnifc
!!!SMS-shelfmark: 493/n
!!!SMS-variant:
!!!SMS-altvar:
!!!SMS-shelfwork: 001-014 G
!!!NIFC-rismSourceID: 1001157350
!!!NIFC-rismChildID: 1001157370
!!!NIFC-islandoraID: nifc:212371
!!!URL-pdf-islandora: https://repozytorium.nifc.pl/islandora/object/nifc%3A212371/datastream/PDF/view
!!!URL-scan: https://polish.musicsources.pl/pl/lokalizacje/galeria/druki-muzyczne/16843 @EN{Scan on Polish Music Sources Website} @PL{Skany w portalu Dziedzictwo Muzyki Polskiej w otwartym dostępie}
!!!IIIF:
!!!ONB-nifc: UWAGA: w zbiorze znajduje się 14 Polonezów z Triami, pliki są numerowane jak w źródle.
!!!AIN: 4 piano
!!!key: G
!!!OMD:
!!!OMD-mod: Moderato
**kern	**dynam	**kern	**dynam	**kern	**kern	**dynam
*part4	*	*part3	*	*part2	*part1	*
*staff4	*	*staff3	*	*staff2	*staff1	*
*I"Piano. Secondo.	*	*I"Piano. Secondo.	*	*I"Piano. Primo.	*I"Piano. Primo.	*
*mI"Pianoforte II	*	*mI"Pianoforte II	*	*mI"Pianoforte I	*mI"Pianoforte I	*
*'[pf 2]	*	*I'[pf 2]	*	*I'[pf 1]	*I'[pf 1]	*
*Ipiano	*	*Ipiano	*	*Ipiano	*Ipiano	*
*ICklav	*	*ICklav	*	*ICklav	*ICklav	*
*clefF4	*	*clefF4	*	*clefG2	*clefG2	*
*k[f#]	*	*k[f#]	*	*k[f#]	*k[f#]	*
*G:	*	*G:	*	*G:	*G:	*
*M3/4	*	*M3/4	*	*M3/4	*M3/4	*
=1	=1	=1	=1	=1	=1	=1
!	!	!	!	!	!LO:MO:mod=!LO&colon;TX&colon;b&colon;i&colon;t= dolce	!
!	!	!	!	!	!LO:TX:b:i:t=dolce.	!
!	!	!LO:TX:a:B:t=Moderato.:mod=	!	!	!LO:TX:a:B:t=Moderato.:mod=	!
2GG 2GGG/	.	8r	p	(4.b/	(4.bb\	p
.	.	8B 8G 8D'\	.	.	.	.
.	.	8BL 8G 8D'\	.	.	.	.
.	.	8B 8G 8D'\	.	16a#X/LL	16aa#X\LL	.
.	.	.	.	16b/JJ	16bb\JJ	.
4r	.	8B 8G 8D'\	.	4g/)	4gg\)	.
.	.	8BJ 8G 8D'\	.	.	.	.
=2	=2	=2	=2	=2	=2	=2
2GG 2GGG/	.	8r	.	(4.dd\	(4.ddd\	.
.	.	8B 8G 8D'\	.	.	.	.
.	.	8BL 8G 8D'\	.	.	.	.
.	.	8B 8G 8D'\	.	16cc#X\LL	16ccc#X\LL	.
.	.	.	.	16dd\JJ	16ddd\JJ	.
4r	.	8B 8G 8D'\	.	4b\)	4bb\)	.
.	.	8BJ 8G 8D'\	.	.	.	.
=3	=3	=3	=3	=3	=3	=3
2GG 2GGG/	.	8r	.	(8g/L	(8gg\L	<
.	.	8B 8G 8D'\	.	8a/	8aa\	.
.	.	8BL 8G 8D'\	.	8b/	8bb\	.
.	.	8B 8G 8D'\	.	8cc/	8ccc\	.
4r	.	8B 8G 8D'\	.	8cc#X/	8ccc#X\	.
.	.	8BJ 8G 8D'\	.	8dd/J)	8ddd\J)	[
=4	=4	=4	=4	=4	=4	=4
2AA 2AAA/	.	8r	.	8.dd/L	8.ddd\L	>
.	.	8c 8D'\	.	.	.	.
.	.	.	.	16f#/Jk	16ff#\Jk	.
.	.	.	.	(32qqe#X/LLL	(32qqee#XLLL/	.
.	.	.	.	32qqf#/	32qqff#/	.
.	.	.	.	32qqg/JJJ	32qqgg/JJJ	.
.	.	8cL 8D'\	.	2f#/)	2ff#\)	]
.	.	8c 8D'\	.	.	.	.
4r	.	8c 8D'\	.	.	.	.
.	.	8cJ 8D'\	.	.	.	.
=5	=5	=5	=5	=5	=5	=5
!	!	!	!LO:MO:null:mod=.	!	!	!
2D 2DD/	.	8r	>	2cc^\	2ccc^\	.
!	!	!	!LO:MO:null:mod=>	!	!	!
.	.	8c 8A 8F#'\	.	.	.	.
.	.	8cL 8A 8F#'\	.	.	.	.
.	.	8c 8A 8F#'\	.	.	.	.
!	!	!	!LO:MO:null:mod=.	!	!	!
4D 4DD/	.	8c 8A 8F#'\	]	8r	8r	.
!	!	!	!LO:MO:null:mod=]	!	!	!
.	.	8cJ 8A 8F#'\	.	(32cc/LLL	(32ccc\LLL	.
.	.	.	.	32b/	32bb\	.
.	.	.	.	32a/	32aa\	.
.	.	.	.	32g/JJJ)	32gg\JJJ)	.
=6	=6	=6	=6	=6	=6	=6
!	!	!	!LO:MO:null:mod=.	!	!	!
2D#X 2DD#X^>/	.	8r	>	4.f#/	4.ff#\	.
!	!	!	!LO:MO:null:mod=>	!	!	!
.	.	8cL 8A'\	.	.	.	.
.	.	8c 8A'\	.	.	.	.
.	.	8cJ 8A'\	]	(8f#Ss</	(8ff#sS\	.
4E 4EE/	.	8r	.	4g/)	4gg\)	.
.	.	8B 8G\	.	.	.	.
!LO:LB:g=original	!	!LO:LB:g=original	!	!LO:LB:g=original	!LO:LB:g=original	!
=7	=7	=7	=7	=7	=7	=7
2C 2CC/	.	8r	.	4.e/	4.ee\	.
.	.	8cL 8A\	.	.	.	.
.	.	8c 8A\	.	.	.	.
.	.	8cJ 8A\	.	(16dd#X\LL	(16ddd#X\LL	.
.	.	.	.	16ee\JJ	16eee\JJ	.
4C 4CC/	.	8cL 8A\	.	16ddn\LL	16dddn\LL	.
.	.	.	.	16cc\	16ccc\	.
.	.	8eJ 8c\	.	16b\	16bb\	.
.	.	.	.	16a\JJ)	16aa\JJ)	.
=8	=8	=8	=8	=8	=8	=8
4.D 4.DD/	.	8r	.	(4g/	(<4gg\	.
.	.	8dL 8B\	.	.	.	.
.	.	.	.	(16qqa/LL	(16qqaa/LL	.
.	.	.	.	16qqg/JJ	16qqgg/JJ	.
.	.	8dJ 8A\	.	4f#/))	4ff#\))	.
!	!LO:HP:a	!	!	!	!	!
8D/L	<	8r	.	.	.	.
8C/	.	4r	.	4r	4r	.
8AA/J	[[	.	.	.	.	.
=9	=9	=9	=9	=9	=9	=9
8GG/L	.	4B\	f	4dd\	2.r	f
8DD/	.	.	.	.	.	.
8GG/	.	(16A#X\LL	.	(16cc#X\LL	.	.
.	.	16B\	.	16dd\	.	.
8DD/	.	16c\	.	16ee\	.	.
.	.	16B\JJ)	.	16dd\JJ)	.	.
8GG/	.	4G\	.	4b\	.	.
8DD/J	.	.	.	.	.	.
=10	=10	=10	=10	=10	=10	=10
8GG/L	.	4d\	.	4b\	4bb\	.
8DD/	.	.	.	.	.	.
8GG/	.	(16c#X\LL	.	(16a#X\LL	(16aa#X\LL	.
.	.	16d\	.	16b\	16bb\	.
8DD/	.	16e\	.	16cc\	16ccc\	.
.	.	16d\JJ)	.	16b\JJ)	16bb\JJ)	.
8GG/	.	4B\	.	4g/	4gg\	.
8DD/J	.	.	.	.	.	.
=11	=11	=11	=11	=11	=11	=11
!	!	!	!LO:MO:null:mod=<	!	!	!
8GG/L	.	(16G\LL	.	8r	8r	.
.	.	16F#\	.	.	.	.
!	!	!	!LO:MO:null:mod=.	!	!	!
8DD/	.	16A\	<	8dd 8b\	8gg\	.
.	.	16G\JJ	.	.	.	.
8GG/	.	16B\LL	.	8ddL 8b\	8gg\L	.
.	.	16A\	.	.	.	.
8DD/	.	16c\	.	8dd 8b\	8gg\	.
.	.	16B\JJ	.	.	.	.
8GG/	.	16d\LL	.	8dd 8b\	8gg\	.
.	.	16c#X\	.	.	.	.
8DD/J	.	16e\	.	8ddJ 8b\	8gg\J	.
.	.	16d\JJ)	[	.	.	.
!LO:LB:g=original	!	!LO:LB:g=original	!	!	!	!
=12	=12	=12	=12	=12	=12	=12
8AA/L	.	8d\L	.	8r	8r	.
8DD/	.	8F#\J	>	8dd 8cc\	8ff#\	.
.	.	(32qqE#X/LLL	.	.	.	.
.	.	32qqF#/	.	.	.	.
.	.	32qqG/JJJ	.	.	.	.
8AA/	.	4F#\)	]	8ddL 8cc\	8ff#\L	.
8DD/	.	.	.	8dd 8cc\	8ff#\	.
8AA/	.	4r	.	8dd 8cc\	8ff#\	.
8DD/J	.	.	.	8ddJ 8cc\	8ff#\J	.
!	!	!	!	!LO:LB:g=original	!LO:LB:g=original	!
=13	=13	=13	=13	=13	=13	=13
4D\	.	(4d^\	p	8r	4r	p
.	.	.	.	8dd 8cc 8a\	.	.
4r	.	4F#\)	.	8ddL 8cc 8a\	8r	.
.	.	.	.	8dd 8cc 8a\	(8aasSSs\L	.
4DD/	.	4r	.	8dd 8cc 8a\	8eee\	.
.	.	.	.	8ddJ 8cc 8a\	8ddd\J)	.
=14	=14	=14	=14	=14	=14	=14
4GG/	.	(4d^\	.	8r	4r	.
.	.	.	.	8dd 8b 8g\	.	.
4r	.	4G\)	.	8ddL 8b 8g\	8r	.
.	.	.	.	8dd 8b 8g\	(8bbSssS\L	.
4GG/	.	4r	.	8dd 8b 8g\	8eee\	.
.	.	.	.	8ddJ 8b 8g\	8ddd\J)	.
=15	=15	=15	=15	=15	=15	=15
2C 2CC'/	.	8r	f	[4e/	[4ee\	f
.	.	8c 8A 8E\	.	.	.	.
*	*	*tremolo	*	*	*	*
!	!	!	!	!LO:SIC:s=16e/LL]:v	!	!
.	.	8cL 8A 8E'\	.	(16e/LL]	16ee\LL]	.
!	!	!	!	!LO:SIC:s=(16f#/:v	!	!
.	.	.	.	16f#/	(16ff#\	.
.	.	8c 8A 8E'\	.	16g#X/	16gg#X\	.
.	.	.	.	16a/JJ	16aa\JJ	.
4CC/	.	8c 8A 8E'\	.	16b\LL	16bb\LL	.
.	.	.	.	16cc\	16ccc\	.
.	.	8cJ 8A 8E'\	.	16dd\	16ddd\	.
.	.	.	.	16ee\JJ)	16eee\JJ)	.
=16	=16	=16	=16	=16	=16	=16
8DD/L	.	8BL 8G 8E\	.	(16gn/LL	(16ggn\LL	.
.	.	.	.	16b/	16bb\	.
8DD/J	.	8cJ 8A 8G 8E\	.	16a/	16aa\	.
.	.	.	.	16f#/JJ)	16ff#\JJ)	.
8r	.	8r	.	(4f#/	(4ff#\	.
8DD/L	.	8cL 8A 8D\	.	.	.	.
!	!	!LO:MO:mod=!LO&colon;TX&colon;b&colon;i&colon;t=Fine	!	!	!LO:MO:mod=!LO&colon;TX&colon;b&colon;i&colon;t=Fine	!
!	!	!null	!	!	!null	!
8GG/J	.	8BJ 8G 8D\	.	8g/)	8gg\)	.
!	!	!LO:MO:mod=!null:null	!	!	!LO:MO:mod=!null:null	!
!	!	!LO:TX:b:i:t=Fine.	!	!	!LO:TX:b:i:t=Fine.	!
8r	.	8r	.	8r	8r	.
!LO:LB:g=original	!	!LO:LB:g=original	!	!	!	!
==:|17	==:|17	==:|17	==:|17	==:|17	==:|17	==:|17
4DD#X/	.	8r	mf	4.b\	4.bb\	mf
.	.	8B 8A 8F#\	.	.	.	.
4r	.	8BL 8A 8F#'\	.	.	.	.
.	.	8B 8A 8F#'\	.	(16.cc^\LL	(16.ccc^\LL	.
.	.	.	.	32b\JJk)	32bb\JJk)	.
4DD#/	.	8B 8A 8F#'\	.	(16.cc^\LL	(16.ccc^\LL	.
.	.	.	.	32b\K)	32bb\K)	.
.	.	8BJ 8A 8F#'\	.	(16.cc^\	(16.ccc^\	.
.	.	.	.	32b\JJk)	32bb\JJk)	.
=18	=18	=18	=18	=18	=18	=18
4EE/	.	8r	.	8.g/L	8.gg\L	.
.	.	8BL 8G 8E\	.	.	.	.
.	.	.	.	16b/Jk	16bb\Jk	.
4r	.	8B 8G 8E\	.	4ee\	4eee\	.
.	.	8BJ 8G 8E\	.	.	.	.
4E 4EE/	.	8r	.	4r	4r	.
.	.	8e 8B 8G\	.	.	.	.
!LO:LB:g=original	!	!LO:LB:g=original	!	!LO:LB:g=original	!LO:LB:g=original	!
=19	=19	=19	=19	=19	=19	=19
*	*	*	*	*tremolo	*tremolo	*
!	!	!LO:TX:b:i:t=espress.	!	!	!	!
4BB 4BBB/	.	8AsSSs\L	.	8r	4r	.
.	.	8c\J	.	8a 8f# 8d#X/	.	.
4r	.	8B\L	.	8aL 8f# 8d#/	8r	.
.	.	(8A'^\	.	8a 8f# 8d#/	8bb\L	.
4BB 4BBB/	.	8Gn'^\	.	8a 8f# 8d#/	8bb\	.
.	.	8F#'^\J)	.	8aJ 8f# 8d#/	8bb\J	.
=20	=20	=20	=20	=20	=20	=20
*	*	*	*	*	*Xtremolo	*
4EE/	.	(16A\LL	.	8r	([4bb^\	.
.	.	16G\	.	.	.	.
.	.	16F#\	.	8g 8e/	.	.
.	.	16E\JJ)	.	.	.	.
4r	.	4E\	.	8gL 8e/	16bb\LL]	.
.	.	.	.	.	16aa\	.
.	.	.	.	8g 8e/	16gg\	.
.	.	.	.	.	16ff#\JJ	.
4EE/	.	4r	.	8g 8e/	4ee\)	.
.	.	.	.	8gJ 8e/	.	.
=21	=21	=21	=21	=21	=21	=21
!	!	!	!	!	!LO:MO:mod=!LO&colon;TX&colon;b&colon;i&colon;t=dolce 	!
!	!	!	!	!	!LO:TX:b:i:t=dolce.	!
4FF#/	.	8r	p	4a/	4aa\	p
.	.	8cL 8A 8D\	.	.	.	.
4r	.	8c 8A 8D\	.	8r	8r	.
.	.	8c 8A 8D\	.	(8asSSs</L	(8aasSSs\L	.
4DD/	.	8c 8A 8F# 8D\	.	8b/	8bb\	.
.	.	8cJ 8A 8F# 8D\	.	8cc/J)	8ccc\J)	.
=22	=22	=22	=22	=22	=22	=22
4GG/	.	8r	.	(8.cc#X\L	(8.ccc#X\L	.
*	*	*Xtremolo	*	*	*	*
.	.	8BL 8G 8D\	.	.	.	.
.	.	.	.	16dd\Jk	16ddd\Jk	.
4r	.	8B 8G 8D\	.	4b\)	4bb\)	.
.	.	8BJ 8G 8D\	.	.	.	.
4GG/	.	8r	.	4r	4r	.
.	.	8B 8G 8D\	.	.	.	.
!LO:LB:g=original	!	!LO:LB:g=original	!	!	!	!
=23	=23	=23	=23	=23	=23	=23
8FF#/	.	8c 8A 8D\	.	8a'\L	8aa'\L	.
8r	.	8r	.	(16dd\L	(16ddd\L	.
.	.	.	.	16cc\JJ)	16ccc\JJ)	.
8FF#/	.	8c 8A 8D\	.	8a'/L	8aa'\L	.
8r	.	8r	.	(16cc/L	(16ccc\L	.
.	.	.	.	16a/JJ)	16aa\JJ)	.
!LO:SIC:s=8GG/:v	!	!	!	!	!	!
8FF#/	.	8B 8G 8D\	.	8b'/L	8bb'\L	.
8r	.	8r	.	(16b/L	(16bb\L	.
.	.	.	.	16g/JJ)	16gg\JJ)	.
=24	=24	=24	=24	=24	=24	=24
!LO:MO:mod=!null:null	!	!	!	!	!	!
!LO:TX:b:i:t=Da Capo al Fine.	!	!	!	!	!	!
4DD/	.	4A 4F# 4D\	.	4a/	(16ff#\LL	>
.	.	.	.	.	16dd\	.
.	.	.	.	.	16cc#X\	.
.	.	.	.	.	16dd\JJ	.
!	!	!	!	!LO:MO:mod=!null:null	!	!
!	!	!	!	!LO:TX:b:i:t=Da Capo al Fine.	!	!
4r	.	4r	.	4r	16dd#X\LL	.
.	.	.	.	.	16ee\	.
.	.	.	.	.	16ffn\	.
.	.	.	.	.	16ff#X\JJ	.
!	!	!LO:MO:mod=!LO&colon;TX&colon;b&colon;i&colon;t=D.C. al Fine	!	!	!LO:MO:mod=!LO&colon;TX&colon;b&colon;i&colon;t=D.C. al Fine	!
!	!	!null	!	!	!null	!
4r	.	4r	.	4r	16gg\LL	.
.	.	.	.	.	16gg#X\	.
.	.	.	.	.	16aa\	.
.	.	.	.	.	16aa#X\JJ)	]
!LO:PB:g=original	!	!LO:PB:g=original	!	!LO:PB:g=original	!LO:PB:g=original	!
==25	==25	==25	==25	==25	==25	==25
!!!OMD:
!!!OMD-mod: Trio
*	*	*	*	*Xtremolo	*	*
!	!	!LO:TX:B:t=Trio.:mod=	!	!	!	!
!	!	!LO:MO:mod=!LO&colon;TX&colon;b&colon;i&colon;t=dolce	!	!	!	!
!	!	!LO:TX:b:i:t=dolce.	!	!	!LO:TX:b:B:t=Trio.:mod=	!
4GG/	.	(16.G\LL	p	8r	2.dddTT\	p
.	.	32D\K	.	.	.	.
.	.	16.B\	.	8dd 8b 8g\	.	.
.	.	32G\JJk)	.	.	.	.
4GG/	.	(4.d^\	.	8ddL 8b 8g\	.	.
.	.	.	.	8dd 8b 8g\	.	.
4GG/	.	.	.	8dd 8b 8g\	.	.
.	.	8B\)	.	8ddJ 8b 8g\	.	.
=26	=26	=26	=26	=26	=26	=26
4DD/	.	(8.A\L	.	8r	2.dddTTT\	.
.	.	.	.	8dd 8cc 8f#\	.	.
.	.	16B\Jk)	.	.	.	.
4GG/	.	4G\	.	8ddL 8b 8g\	.	.
.	.	.	.	8dd 8b 8g\	.	.
4GG/	.	4r	.	8dd 8b 8g\	.	.
.	.	.	.	8ddJ 8b 8g\	.	.
=27	=27	=27	=27	=27	=27	=27
4GG/	.	(16.B\LL	<	8r	2.dddTTT\	<
.	.	32G\K	.	.	.	.
.	.	16.d\	.	8dd 8b\	.	.
.	.	32B\JJk)	[	.	.	.
4GG/	.	(4.g\	>	8ddL 8b\	.	.
.	.	.	.	8dd 8b\	.	[
4GG/	.	.	.	8dd 8b\	.	>
.	.	8d\)	]	8ddJ 8b\	.	]]
!LO:LB:g=original	!	!LO:LB:g=original	!	!LO:LB:g=original	!LO:LB:g=original	!
=28	=28	=28	=28	=28	=28	=28
4DD/	.	(8.csS\L	.	8r	2dddTT\	.
.	.	.	.	8dd 8cc 8f#\	.	.
.	.	16d\Jk)	.	.	.	.
4GG/	.	4B\	.	8ddL 8b 8g\	.	.
.	.	.	.	8dd 8b 8g\	.	.
.	.	.	.	.	16qqccc#X/LL	.
.	.	.	.	.	16qqddd/JJ	.
4GG/	.	4r	.	8dd 8b 8g\	8eee\	.
.	.	.	.	8ddJ 8b 8g\	8r	.
=29	=29	=29	=29	=29	=29	=29
!	!	!	!	!	!LO:MO:mod=!null:null	!
!	!	!	!	!	!LO:TX:b:t=1	!
8r	.	(4.e^\	.	2.r	2.r	.
8CC/	.	.	.	.	.	.
(8C/L	.	.	.	.	.	.
8D/	.	8G#X\L	<	.	.	.
8C/	.	8A\	.	.	.	.
8GG#X/J)	.	8B\J)	.	.	.	.
=30	=30	=30	=30	=30	=30	=30
8AA/L	.	8c\L	.	4r	2.r	.
8AA#X/J	.	8c#X\	.	.	.	.
(<4BB/	.	8d\	.	4r	.	.
.	.	8d#X\J	[	.	.	.
8C/L	.	[4e\	.	8r	.	.
8C#X/J	.	.	.	(8b-X 8g/	.	.
!LO:LB:g=original	!	!LO:LB:g=original	!	!	!	!
=31	=31	=31	=31	=31	=31	=31
4D\)	.	(8e\]	.	8aL 8f#/)	2.r	.
.	.	4F#^<\)	.	8a 8f#/	.	.
4Cn/	.	.	.	8a 8f#/	.	.
.	.	(8d^<\L	.	8ddJ 8a 8f#/	.	.
8BB/L	.	8G\	.	8ddL 8g\	.	.
8GG/J	.	8d^<\J)	.	8ddJ 8b 8g\	.	.
=32	=32	=32	=32	=32	=32	=32
8DD/L	.	(16d\LL	.	8ddL 8b\	(16bb\LL	.
.	.	16B\	.	.	16gg\	.
8D/J	.	16c\	.	8ccJ 8a\	16aa\)	.
.	.	16A\JJ)	.	.	16ff#\JJ	.
8r	.	(4A^\	.	(4cc 4a^\	(4ff#^\	.
8DD/L	.	.	.	.	.	.
!	!	!LO:MO:mod=!LO&colon;TX&colon;b&colon;i&colon;t=Fine	!	!	!LO:MO:mod=!LO&colon;TX&colon;b&colon;i&colon;t=Fine	!
!	!	!null	!	!	!null	!
8GG/J	.	8G\)	.	8b 8g/)	8gg\)	.
!	!	!LO:MO:mod=!null:null	!	!	!LO:MO:mod=!null:null	!
!	!	!LO:TX:b:i:t=Fine.	!	!	!LO:TX:b:i:t=Fine.	!
8r	.	8r	.	8r	8r	.
!	!	!	!	!LO:LB:g=original	!LO:LB:g=original	!
==:|33	==:|33	==:|33	==:|33	==:|33	==:|33	==:|33
8DL 8DD'/	.	8dL 8A 8F#'\	ff	4r	(16dd\LL	ff
.	.	.	.	.	16qqee/LL	.
.	.	.	.	.	16qqdd/JJ	.
.	.	.	.	.	16cc#X\	.
8D 8DD'/	.	8d 8A 8F#'\	.	.	16dd\	.
.	.	.	.	.	16ee\JJ	.
8D 8DD'/	.	8d 8A 8F#'\	.	4r	16ff#\LL	.
.	.	.	.	.	16gg\	.
8D 8DD'/	.	8d 8A 8F#'\	.	.	16aa\	.
.	.	.	.	.	16bb\JJ	.
8D 8DD'/	.	8d 8A 8F#'\	.	(16cc#X\LL	16ccc#X\LL	.
.	.	.	.	16dd\	16ddd\	.
8DJ 8DD'/	.	8dJ 8A 8F#'\	.	16a\	16aa\	.
.	.	.	.	16f#\JJ)	16ff#\JJ)	.
!LO:LB:g=original	!	!LO:LB:g=original	!	!	!	!
=34	=34	=34	=34	=34	=34	=34
8DL 8DD'/	.	8c#XL 8A 8G'\	.	4e/	(16ee\LL	.
.	.	.	.	.	16ff#\	.
8D 8DD'/	.	8c# 8A 8G'\	.	.	16gg\	.
.	.	.	.	.	16ff#\JJ	.
8D 8DD'/	.	8c# 8A 8G'\	.	16r	16ee\LL	.
.	.	.	.	(16cc#X\LL	16ccc#X\	.
8D 8DD'/	.	8c# 8A 8G'\	.	16ee\	16eee\	.
.	.	.	.	16dd\JJ	16ddd\JJ	.
8D 8DD'/	.	8c# 8A 8G'\	.	16cc#\LL	16ccc#\LL	.
.	.	.	.	16b\	16bb\	.
8DJ 8DD'/	.	8c#J 8A 8G'\	.	16a\	16aa\	.
.	.	.	.	16g\JJ)	16gg\JJ)	.
!	!	!	!	!LO:LB:g=original	!LO:LB:g=original	!
=35	=35	=35	=35	=35	=35	=35
8DL 8DD'/	.	8cnL 8A 8F#'\	.	(16f#/LL	(16ff#\LL	.
.	.	.	.	16d/	16dd\	.
8D 8DD'/	.	8c 8A 8F#'\	.	16f#/	16ff#\	.
.	.	.	.	16e/JJ	16ee\JJ	.
8D 8DD'/	.	8c 8A 8F#'\	.	16g/LL	16gg\LL	.
.	.	.	.	16f#/	16ff#\	.
8D 8DD'/	.	8c 8A 8F#'\	.	16a/	16aa\	.
.	.	.	.	16g/JJ	16gg\JJ	.
8D 8DD'/	.	8c 8A 8F#'\	.	16b/LL	16bb\LL	.
.	.	.	.	16a/	16aa\	.
8DJ 8DD'/	.	8cJ 8A 8F#'\	.	16ccn/	16ccc\	.
.	.	.	.	16b/JJ)	16bb\JJ)	.
=36	=36	=36	=36	=36	=36	=36
!LO:MO:mod=!null:null	!	!	!	!	!	!
!LO:TX:b:i:t=Trio Da Capo al Fine.	!	!	!	!	!	!
4D 4DD/	.	4c 4A 4F#\	.	4cc\	(16ddd\LL	>
.	.	.	.	.	16ccc\	.
.	.	.	.	.	16bb\	.
.	.	.	.	.	16aa\JJ	.
4r	.	4r	.	4r	16gg\LL	.
.	.	.	.	.	16ff#\	.
.	.	.	.	.	16ee\	.
.	.	.	.	.	16dd\JJ	.
!	!	!LO:MO:mod=!LO&colon;TX&colon;b&colon;i&colon;t=Trio D.C. al Fine	!	!	!	!
!	!	!null	!	!	!	!
!	!	!	!	!LO:MO:mod=!LO&colon;TX&colon;a&colon;i&colon;t=Trio D.C. al Fine	!	!
!	!	!	!	!LO:TX:b:i:t=Trio Da Capo al Fine.	!	!
4r	.	4r	.	4r	16cc#X\LL	.
.	.	.	.	.	16dd\	.
.	.	.	.	.	8qff#/	.
.	.	.	.	.	16ee\	.
.	.	.	.	.	16dd\JJ)	]
==	==	==	==	==	==	==
*-	*-	*-	*-	*-	*-	*-
!!!system-decoration: {(s1,s2)}{(s3,s4)}
!!!RDF**kern: > = above
!!!RDF**kern: < = below
!!!filter-modern: sic -sq | shed -e "s/LO:DY:(a|b|rj)/LO:dy:$1/L" | modori -m | autostem -r | shed -e "s/yy//" | shed -e "s/^(\d+[\/\\]right)/$1yy/I; s/^(\d+[\/\\]left)/$1yy/I" | shed -k -e "s/[<>]//g"
!!!ENC: Mateusz Solarz
!!!END: 2022-07-25
!!!EED: Urszula Świątek
!!!EEV: 2022-08-22
!!!EED-modern: Antoni Szymański
!!!END-modern: 2022-09-13
